;FLAVOR:Marlin
;TIME:1979
;Filament used: 1.40862m
;Layer height: 0.15
;MINX:77.553
;MINY:81.723
;MINZ:0.3
;MAXX:114.999
;MAXY:118.275
;MAXZ:25.8
;Generated with Cura_SteamEngine 4.13.1
M140 S60
M105
M190 S60
M104 S200
M105
M109 S200
M82 ;absolute extrusion mode
G21 ;metric values
 G90 ;absolute positioning
 M82 ;set extruder to absolute mode
 M107 ;start with the fan off
 G28 X0 Y0 ;move X/Y to min endstops
 G28 Z0 ;move Z to min endstops
 G1 Z15.0 F120 ;move the platform down 15mm
 G92 E0 ;zero the extruded length
 G1 F200 E6 ;extrude 6 mm of feed stock
 G92 E0 ;zero the extruded length again
 G1 F120 
 ;Put printing message on LCD screen
 M117 Printing...
G92 E0
G92 E0
G1 F1500 E-6.5
;LAYER_COUNT:172
;LAYER:0
M107
G0 F3600 X83.003 Y86.978 Z0.3
;TYPE:SKIRT
G1 F1500 E0
G1 F1800 X83.549 Y86.463 E0.03745
G1 X83.958 Y86.103 E0.06463
G1 X84.55 Y85.618 E0.10281
G1 X84.995 Y85.28 E0.13069
G1 X85.607 Y84.848 E0.16806
G1 X86.171 Y84.485 E0.20153
G1 X86.707 Y84.162 E0.23275
G1 X87.238 Y83.866 E0.26308
G1 X87.907 Y83.527 E0.30049
G1 X88.423 Y83.289 E0.32884
G1 X89.121 Y82.997 E0.36659
G1 X89.636 Y82.803 E0.39405
G1 X90.35 Y82.562 E0.43164
G1 X90.902 Y82.398 E0.46037
G1 X91.633 Y82.21 E0.49803
G1 X92.187 Y82.089 E0.52632
G1 X92.944 Y81.952 E0.5647
G1 X93.491 Y81.873 E0.59227
G1 X94.237 Y81.792 E0.62971
G1 X94.79 Y81.751 E0.65737
G1 X95.546 Y81.723 E0.69512
G1 X96.134 Y81.724 E0.72445
G1 X96.889 Y81.753 E0.76215
G1 X97.429 Y81.792 E0.78916
G1 X98.178 Y81.873 E0.82674
G1 X98.723 Y81.952 E0.85422
G1 X99.472 Y82.087 E0.89219
G1 X100.042 Y82.212 E0.9213
G1 X100.784 Y82.404 E0.95954
G1 X101.328 Y82.566 E0.98786
G1 X102.038 Y82.806 E1.02525
G1 X102.563 Y83.004 E1.05324
G1 X103.26 Y83.297 E1.09096
G1 X103.775 Y83.536 E1.11929
G1 X104.449 Y83.879 E1.15702
G1 X104.913 Y84.136 E1.18348
G1 X105.557 Y84.521 E1.22091
G1 X106.063 Y84.851 E1.25105
G1 X106.68 Y85.288 E1.28877
G1 X107.12 Y85.623 E1.31636
G1 X107.716 Y86.112 E1.35483
G1 X108.13 Y86.477 E1.38236
G1 X108.672 Y86.99 E1.41959
G1 X109.07 Y87.396 E1.44796
G1 X109.584 Y87.959 E1.48599
G1 X109.949 Y88.388 E1.51409
G1 X110.415 Y88.979 E1.55164
G1 X110.755 Y89.445 E1.58042
G1 X111.183 Y90.079 E1.61858
G1 X111.467 Y90.533 E1.6453
G1 X111.843 Y91.182 E1.68272
G1 X112.114 Y91.691 E1.71149
G1 X112.441 Y92.366 E1.74891
G1 X112.664 Y92.872 E1.7765
G1 X112.945 Y93.575 E1.81427
G1 X113.14 Y94.121 E1.84319
G1 X113.368 Y94.843 E1.88097
G1 X113.516 Y95.379 E1.90871
G1 X113.695 Y96.128 E1.94713
G1 X113.805 Y96.669 E1.97467
G1 X113.926 Y97.401 E2.01169
G1 X113.999 Y97.974 E2.0405
G1 X114.067 Y98.73 E2.07837
G1 X114.097 Y99.285 E2.1061
G1 X114.111 Y100.042 E2.14388
G1 X114.098 Y100.651 E2.17427
G1 X114.06 Y101.361 E2.20974
G1 X114.008 Y101.937 E2.23859
G1 X113.915 Y102.671 E2.2755
G1 X113.823 Y103.233 E2.30392
G1 X113.673 Y103.977 E2.34178
G1 X113.54 Y104.531 E2.37021
G1 X113.333 Y105.273 E2.40864
G1 X113.162 Y105.809 E2.43671
G1 X112.915 Y106.498 E2.47322
G1 X112.716 Y107 E2.50016
G1 X112.404 Y107.711 E2.5389
G1 X112.154 Y108.228 E2.56755
G1 X111.798 Y108.9 E2.60549
G1 X111.512 Y109.395 E2.63401
G1 X111.116 Y110.026 E2.67118
G1 X110.806 Y110.484 E2.69877
G1 X110.36 Y111.094 E2.73647
G1 X110.014 Y111.532 E2.76432
G1 X109.526 Y112.108 E2.80198
G1 X109.145 Y112.514 E2.82976
G1 X109.15 Y112.519 E2.83011
G1 X108.618 Y113.064 E2.86811
G1 X108.171 Y113.487 E2.89881
G1 X107.605 Y113.982 E2.93633
G1 X107.197 Y114.316 E2.96263
G1 X106.601 Y114.77 E3.00001
G1 X106.132 Y115.1 E3.02862
G1 X105.489 Y115.519 E3.06691
G1 X105.008 Y115.808 E3.09491
G1 X104.354 Y116.17 E3.1322
G1 X103.848 Y116.427 E3.16051
G1 X103.151 Y116.749 E3.19882
G1 X102.64 Y116.963 E3.22646
G1 X101.937 Y117.229 E3.26396
G1 X101.382 Y117.416 E3.29318
G1 X100.649 Y117.632 E3.3313
G1 X100.123 Y117.767 E3.35839
G1 X99.397 Y117.927 E3.39548
G1 X98.841 Y118.029 E3.42368
G1 X98.078 Y118.14 E3.46215
G1 X97.527 Y118.2 E3.4898
G1 X96.792 Y118.254 E3.52657
G1 X96.22 Y118.275 E3.55513
G1 X95.443 Y118.275 E3.59389
G1 X94.866 Y118.254 E3.6227
G1 X94.125 Y118.199 E3.65977
G1 X93.583 Y118.139 E3.68697
G1 X92.824 Y118.029 E3.72524
G1 X92.261 Y117.926 E3.75379
G1 X91.532 Y117.765 E3.79104
G1 X90.987 Y117.624 E3.81912
G1 X90.252 Y117.405 E3.85738
G1 X89.719 Y117.225 E3.88545
G1 X89.016 Y116.959 E3.92295
G1 X88.509 Y116.747 E3.95037
G1 X87.811 Y116.425 E3.98872
G1 X87.287 Y116.159 E4.01804
G1 X86.636 Y115.797 E4.0552
G1 X86.169 Y115.515 E4.08242
G1 X85.532 Y115.1 E4.12034
G1 X85.067 Y114.773 E4.14871
G1 X84.465 Y114.315 E4.18644
G1 X84.038 Y113.965 E4.21399
G1 X83.475 Y113.47 E4.25139
G1 X83.054 Y113.071 E4.28033
G1 X82.515 Y112.521 E4.31875
G1 X82.102 Y112.065 E4.34944
G1 X81.662 Y111.547 E4.38335
G1 X81.303 Y111.092 E4.41226
G1 X80.862 Y110.49 E4.44949
G1 X80.535 Y110.008 E4.47855
G1 X80.136 Y109.368 E4.51618
G1 X79.862 Y108.892 E4.54358
G1 X79.506 Y108.22 E4.58152
G1 X79.519 Y108.213 E4.58226
G1 X79.25 Y107.693 E4.61147
G1 X78.947 Y107.002 E4.64911
G1 X78.742 Y106.487 E4.67676
G1 X78.493 Y105.788 E4.71378
G1 X78.324 Y105.252 E4.74182
G1 X78.118 Y104.508 E4.78034
G1 X77.977 Y103.906 E4.81118
G1 X77.844 Y103.25 E4.84458
G1 X77.747 Y102.663 E4.87426
G1 X77.654 Y101.926 E4.91132
G1 X77.604 Y101.364 E4.93947
G1 X77.563 Y100.594 E4.97794
G1 X77.553 Y100.035 E5.00583
G1 X77.567 Y99.279 E5.04356
G1 X77.598 Y98.714 E5.07179
G1 X77.667 Y97.958 E5.10966
G1 X77.737 Y97.409 E5.13727
G1 X77.855 Y96.687 E5.17377
G1 X77.968 Y96.126 E5.20232
G1 X78.15 Y95.367 E5.24126
G1 X78.303 Y94.818 E5.26969
G1 X78.533 Y94.096 E5.3075
G1 X78.718 Y93.58 E5.33485
G1 X78.997 Y92.879 E5.37249
G1 X79.229 Y92.354 E5.40112
G1 X79.558 Y91.677 E5.43868
G1 X79.825 Y91.175 E5.46704
G1 X80.2 Y90.528 E5.50435
G1 X80.488 Y90.068 E5.53143
G1 X80.921 Y89.428 E5.56998
G1 X81.261 Y88.963 E5.59872
G1 X81.724 Y88.377 E5.63598
G1 X82.078 Y87.961 E5.66323
G1 X82.589 Y87.4 E5.70109
G1 X83.003 Y86.978 E5.73058
G0 F3600 X83.277 Y87.269
G1 F1800 X83.823 Y86.754 E5.76803
G1 X84.211 Y86.413 E5.7938
G1 X84.803 Y85.928 E5.83198
G1 X85.226 Y85.606 E5.8585
G1 X85.838 Y85.174 E5.89588
G1 X86.373 Y84.83 E5.92761
G1 X86.915 Y84.504 E5.95916
G1 X87.419 Y84.223 E5.98795
G1 X88.088 Y83.884 E6.02537
G1 X88.577 Y83.658 E6.05224
G1 X89.275 Y83.366 E6.08999
G1 X89.764 Y83.182 E6.11606
G1 X90.478 Y82.941 E6.15365
G1 X91.002 Y82.785 E6.18093
G1 X91.733 Y82.597 E6.21859
G1 X92.258 Y82.482 E6.2454
G1 X93.015 Y82.345 E6.28378
G1 X93.534 Y82.27 E6.30994
G1 X94.28 Y82.189 E6.34738
G1 X94.805 Y82.151 E6.37364
G1 X95.561 Y82.123 E6.41138
G1 X96.119 Y82.123 E6.43922
G1 X96.874 Y82.152 E6.47692
G1 X97.386 Y82.19 E6.50253
G1 X98.135 Y82.271 E6.54012
G1 X98.652 Y82.345 E6.56617
G1 X99.401 Y82.48 E6.60414
G1 X99.942 Y82.599 E6.63178
G1 X100.684 Y82.791 E6.67002
G1 X101.2 Y82.945 E6.69688
G1 X101.91 Y83.185 E6.73427
G1 X102.408 Y83.373 E6.76083
G1 X103.105 Y83.666 E6.79855
G1 X103.593 Y83.893 E6.8254
G1 X104.267 Y84.236 E6.86313
G1 X104.708 Y84.479 E6.88825
G1 X105.352 Y84.864 E6.92569
G1 X105.832 Y85.177 E6.95427
G1 X106.449 Y85.614 E6.992
G1 X106.866 Y85.932 E7.01816
G1 X107.462 Y86.421 E7.05662
G1 X107.855 Y86.768 E7.08278
G1 X108.397 Y87.281 E7.12001
G1 X108.775 Y87.666 E7.14693
G1 X109.289 Y88.229 E7.18496
G1 X109.635 Y88.636 E7.21161
G1 X110.101 Y89.227 E7.24916
G1 X110.423 Y89.669 E7.27644
G1 X110.851 Y90.303 E7.31461
G1 X111.121 Y90.733 E7.33994
G1 X111.497 Y91.382 E7.37736
G1 X111.754 Y91.866 E7.4047
G1 X112.081 Y92.541 E7.44212
G1 X112.292 Y93.02 E7.46823
G1 X112.573 Y93.723 E7.506
G1 X112.759 Y94.242 E7.53351
G1 X112.987 Y94.964 E7.57128
G1 X113.127 Y95.472 E7.59757
G1 X113.306 Y96.221 E7.63599
G1 X113.41 Y96.734 E7.6621
G1 X113.531 Y97.466 E7.69912
G1 X113.6 Y98.01 E7.72648
G1 X113.668 Y98.766 E7.76435
G1 X113.697 Y99.292 E7.79063
G1 X113.711 Y100.049 E7.8284
G1 X113.699 Y100.627 E7.85724
G1 X113.66 Y101.341 E7.89292
G1 X113.611 Y101.887 E7.92027
G1 X113.518 Y102.621 E7.95718
G1 X113.431 Y103.154 E7.98412
G1 X113.281 Y103.898 E8.02199
G1 X113.155 Y104.423 E8.04893
G1 X112.948 Y105.165 E8.08736
G1 X112.786 Y105.674 E8.11401
G1 X112.539 Y106.363 E8.15052
G1 X112.349 Y106.84 E8.17614
G1 X112.037 Y107.551 E8.21488
G1 X111.8 Y108.041 E8.24203
G1 X111.444 Y108.713 E8.27997
G1 X111.173 Y109.183 E8.30704
G1 X110.777 Y109.814 E8.34421
G1 X110.483 Y110.248 E8.37036
G1 X110.037 Y110.858 E8.40806
G1 X109.709 Y111.273 E8.43445
G1 X109.221 Y111.849 E8.47211
G1 X108.858 Y112.235 E8.49855
G1 X108.863 Y112.24 E8.4989
G1 X108.331 Y112.785 E8.5369
G1 X107.908 Y113.186 E8.56598
G1 X107.342 Y113.681 E8.60349
G1 X106.954 Y113.998 E8.62849
G1 X106.358 Y114.452 E8.66586
G1 X105.914 Y114.765 E8.69297
G1 X105.271 Y115.184 E8.73126
G1 X104.815 Y115.458 E8.7578
G1 X104.161 Y115.82 E8.79509
G1 X103.68 Y116.064 E8.822
G1 X102.983 Y116.386 E8.8603
G1 X102.499 Y116.589 E8.88649
G1 X101.796 Y116.855 E8.92399
G1 X101.269 Y117.032 E8.95172
G1 X100.536 Y117.248 E8.98985
G1 X100.037 Y117.377 E9.01556
G1 X99.311 Y117.537 E9.05265
G1 X98.783 Y117.633 E9.07942
G1 X98.02 Y117.744 E9.11789
G1 X97.497 Y117.801 E9.14414
G1 X96.762 Y117.855 E9.18091
G1 X96.22 Y117.875 E9.20797
G1 X95.443 Y117.875 E9.24673
G1 X94.895 Y117.855 E9.27409
G1 X94.154 Y117.8 E9.31116
G1 X93.641 Y117.743 E9.33691
G1 X92.882 Y117.633 E9.37517
G1 X92.347 Y117.536 E9.4023
G1 X91.618 Y117.375 E9.43954
G1 X91.101 Y117.241 E9.46619
G1 X90.366 Y117.022 E9.50445
G1 X89.86 Y116.851 E9.5311
G1 X89.157 Y116.585 E9.5686
G1 X88.676 Y116.383 E9.59463
G1 X87.978 Y116.061 E9.63298
G1 X87.482 Y115.809 E9.66073
G1 X86.831 Y115.447 E9.6979
G1 X86.388 Y115.18 E9.7237
G1 X85.751 Y114.765 E9.76163
G1 X85.309 Y114.454 E9.78859
G1 X84.707 Y113.996 E9.82633
G1 X84.302 Y113.664 E9.85246
G1 X83.739 Y113.169 E9.88986
G1 X83.34 Y112.791 E9.91728
G1 X82.801 Y112.241 E9.9557
G1 X82.409 Y111.809 E9.9848
G1 X82.304 Y111.683 E9.99298
G1 X81.966 Y111.287 E10.01896
G1 X81.625 Y110.856 E10.04638
G1 X81.184 Y110.254 E10.08361
G1 X80.874 Y109.796 E10.1112
G1 X80.475 Y109.156 E10.14883
G1 X80.216 Y108.705 E10.17477
G1 X79.86 Y108.033 E10.21271
G1 X79.871 Y108.027 E10.21334
G1 X79.616 Y107.533 E10.24107
G1 X79.313 Y106.842 E10.27872
G1 X79.119 Y106.353 E10.30496
G1 X78.87 Y105.654 E10.34198
G1 X78.709 Y105.146 E10.36857
G1 X78.503 Y104.402 E10.40708
G1 X78.369 Y103.83 E10.43639
G1 X78.34 Y103.678 E10.44411
G1 X78.236 Y103.17 E10.46998
G1 X78.144 Y102.612 E10.4982
G1 X78.051 Y101.875 E10.53526
G1 X78.003 Y101.342 E10.56196
G1 X77.962 Y100.572 E10.60043
G1 X77.953 Y100.042 E10.62687
G1 X77.967 Y99.286 E10.6646
G1 X77.997 Y98.75 E10.69138
G1 X78.066 Y97.994 E10.72925
G1 X78.132 Y97.473 E10.75545
G1 X78.25 Y96.751 E10.79195
G1 X78.357 Y96.219 E10.81903
G1 X78.539 Y95.46 E10.85797
G1 X78.684 Y94.94 E10.8849
G1 X78.914 Y94.218 E10.9227
G1 X79.09 Y93.728 E10.94868
G1 X79.369 Y93.027 E10.98632
G1 X79.588 Y92.529 E11.01346
G1 X79.917 Y91.852 E11.05101
G1 X80.171 Y91.375 E11.07798
G1 X80.546 Y90.728 E11.11528
G1 X80.819 Y90.292 E11.14095
G1 X81.252 Y89.652 E11.1795
G1 X81.575 Y89.211 E11.20677
G1 X82.038 Y88.625 E11.24403
G1 X82.373 Y88.23 E11.26987
G1 X82.884 Y87.669 E11.30773
G1 X83.277 Y87.269 E11.33571
G0 F3600 X83.552 Y87.56
G1 F1800 X84.098 Y87.045 E11.37315
G1 X84.465 Y86.722 E11.39754
G1 X85.057 Y86.237 E11.43572
G1 X85.456 Y85.933 E11.46075
G1 X86.068 Y85.501 E11.49812
G1 X86.574 Y85.176 E11.52813
G1 X87.123 Y84.845 E11.56011
G1 X87.6 Y84.58 E11.58733
G1 X88.269 Y84.241 E11.62475
G1 X88.731 Y84.027 E11.65015
G1 X89.429 Y83.735 E11.6879
G1 X89.892 Y83.561 E11.71258
G1 X90.606 Y83.32 E11.75017
G1 X91.101 Y83.173 E11.77593
G1 X91.832 Y82.985 E11.81359
G1 X92.329 Y82.876 E11.83897
G1 X93.086 Y82.739 E11.87735
G1 X93.577 Y82.668 E11.90211
G1 X94.323 Y82.587 E11.93954
G1 X94.82 Y82.551 E11.9644
G1 X95.576 Y82.523 E12.00215
G1 X96.104 Y82.523 E12.02849
G1 X96.859 Y82.552 E12.06618
G1 X97.343 Y82.588 E12.0904
G1 X98.092 Y82.669 E12.12798
G1 X98.581 Y82.739 E12.15263
G1 X99.33 Y82.874 E12.1906
G1 X99.842 Y82.986 E12.21674
G1 X100.584 Y83.178 E12.25498
G1 X101.072 Y83.324 E12.2804
G1 X101.782 Y83.564 E12.31779
G1 X102.253 Y83.742 E12.34291
G1 X102.95 Y84.035 E12.38063
G1 X103.412 Y84.249 E12.40603
G1 X104.086 Y84.592 E12.44376
G1 X104.503 Y84.823 E12.46754
G1 X105.147 Y85.208 E12.50498
G1 X105.601 Y85.504 E12.53201
G1 X106.218 Y85.941 E12.56974
G1 X106.612 Y86.241 E12.59444
G1 X107.208 Y86.73 E12.6329
G1 X107.58 Y87.058 E12.65765
G1 X108.122 Y87.571 E12.69488
G1 X108.48 Y87.935 E12.72035
G1 X108.994 Y88.498 E12.75838
G1 X109.321 Y88.884 E12.78362
G1 X109.787 Y89.475 E12.82117
G1 X110.092 Y89.892 E12.84695
G1 X110.52 Y90.526 E12.88511
G1 X110.775 Y90.934 E12.90911
G1 X111.151 Y91.583 E12.94653
G1 X111.394 Y92.04 E12.97236
G1 X111.721 Y92.715 E13.00978
G1 X111.921 Y93.169 E13.03453
G1 X112.202 Y93.872 E13.0723
G1 X112.377 Y94.362 E13.09826
G1 X112.605 Y95.084 E13.13603
G1 X112.738 Y95.565 E13.16093
G1 X112.917 Y96.314 E13.19935
G1 X113.015 Y96.799 E13.22403
G1 X113.136 Y97.531 E13.26105
G1 X113.202 Y98.046 E13.28695
G1 X113.27 Y98.802 E13.32482
G1 X113.297 Y99.3 E13.3497
G1 X113.311 Y100.057 E13.38748
G1 X113.3 Y100.604 E13.41477
G1 X113.261 Y101.32 E13.45055
G1 X113.214 Y101.837 E13.47645
G1 X113.121 Y102.571 E13.51336
G1 X113.039 Y103.074 E13.53878
G1 X112.889 Y103.818 E13.57665
G1 X112.77 Y104.316 E13.60219
G1 X112.563 Y105.058 E13.64063
G1 X112.409 Y105.539 E13.66582
G1 X112.162 Y106.228 E13.70234
G1 X111.983 Y106.679 E13.72655
G1 X111.671 Y107.39 E13.76528
G1 X111.447 Y107.854 E13.79099
G1 X111.091 Y108.526 E13.82893
G1 X110.834 Y108.97 E13.85452
G1 X110.438 Y109.601 E13.89169
G1 X110.16 Y110.012 E13.91645
G1 X109.714 Y110.622 E13.95415
G1 X109.404 Y111.015 E13.97912
G1 X108.916 Y111.591 E14.01678
G1 X108.572 Y111.956 E14.0418
G1 X108.577 Y111.961 E14.04216
G1 X108.045 Y112.506 E14.08015
G1 X107.644 Y112.885 E14.10768
G1 X107.078 Y113.38 E14.1452
G1 X106.712 Y113.679 E14.16877
G1 X106.116 Y114.133 E14.20615
G1 X105.696 Y114.43 E14.23182
G1 X105.053 Y114.849 E14.27011
G1 X104.621 Y115.108 E14.29523
G1 X103.967 Y115.47 E14.33253
G1 X103.513 Y115.701 E14.35794
G1 X102.816 Y116.023 E14.39625
G1 X102.357 Y116.215 E14.42107
G1 X101.654 Y116.481 E14.45857
G1 X101.156 Y116.649 E14.48479
G1 X100.423 Y116.865 E14.52291
G1 X99.951 Y116.986 E14.54722
G1 X99.225 Y117.146 E14.58431
G1 X98.726 Y117.237 E14.60962
G1 X97.963 Y117.348 E14.64808
G1 X97.468 Y117.402 E14.67293
G1 X96.733 Y117.456 E14.7097
G1 X96.22 Y117.475 E14.73531
G1 X95.443 Y117.475 E14.77407
G1 X94.925 Y117.456 E14.79993
G1 X94.184 Y117.401 E14.837
G1 X93.698 Y117.348 E14.86139
G1 X92.939 Y117.238 E14.89965
G1 X92.433 Y117.145 E14.92532
G1 X91.704 Y116.984 E14.96257
G1 X91.215 Y116.858 E14.98776
G1 X90.48 Y116.639 E15.02602
G1 X90.002 Y116.477 E15.0512
G1 X89.299 Y116.211 E15.0887
G1 X88.844 Y116.02 E15.11332
G1 X88.146 Y115.698 E15.15167
G1 X87.676 Y115.46 E15.17796
G1 X87.025 Y115.098 E15.21512
G1 X86.606 Y114.845 E15.23954
G1 X85.969 Y114.43 E15.27747
G1 X85.552 Y114.136 E15.30292
G1 X84.95 Y113.678 E15.34066
G1 X84.566 Y113.364 E15.36541
G1 X84.003 Y112.869 E15.40281
G1 X83.626 Y112.512 E15.42871
G1 X83.087 Y111.962 E15.46713
G1 X82.716 Y111.552 E15.49472
G1 X82.271 Y111.027 E15.52905
G1 X81.948 Y110.62 E15.55497
G1 X81.507 Y110.018 E15.59221
G1 X81.214 Y109.584 E15.61833
G1 X80.815 Y108.944 E15.65596
G1 X80.569 Y108.518 E15.6805
G1 X80.213 Y107.846 E15.71844
G1 X80.223 Y107.841 E15.719
G1 X79.982 Y107.372 E15.7453
G1 X79.679 Y106.681 E15.78295
G1 X79.496 Y106.219 E15.80774
G1 X79.247 Y105.52 E15.84476
G1 X79.095 Y105.039 E15.86993
G1 X78.889 Y104.295 E15.90844
G1 X78.762 Y103.754 E15.93616
G1 X78.732 Y103.598 E15.94409
G1 X78.628 Y103.09 E15.96996
G1 X78.541 Y102.562 E15.99666
G1 X78.448 Y101.825 E16.03372
G1 X78.403 Y101.321 E16.05896
G1 X78.362 Y100.551 E16.09743
G1 X78.353 Y100.049 E16.12248
G1 X78.367 Y99.293 E16.1602
G1 X78.395 Y98.787 E16.18549
G1 X78.464 Y98.031 E16.22336
G1 X78.527 Y97.538 E16.24816
G1 X78.645 Y96.816 E16.28466
G1 X78.746 Y96.313 E16.31025
G1 X78.928 Y95.554 E16.34919
G1 X79.065 Y95.061 E16.37472
G1 X79.295 Y94.339 E16.41252
G1 X79.461 Y93.875 E16.43711
G1 X79.74 Y93.174 E16.47475
G1 X79.948 Y92.703 E16.50044
G1 X80.277 Y92.026 E16.53799
